images/usa.svg

<?xml version="1.0" encoding="UTF-8" standalone="no"?>
<svg width="89px" height="51px" viewBox="0 0 89 51" version="1.1" xmlns="http://www.w3.org/2000/svg" xmlns:xlink="http://www.w3.org/1999/xlink">
    <!-- Generator: Sketch 3.8.3 (29802) - http://www.bohemiancoding.com/sketch -->
    <title>golden-gate-bridge</title>
    <desc>Created with Sketch.</desc>
    <defs></defs>
    <g id="Page-1" stroke="none" stroke-width="1" fill="none" fill-rule="evenodd">
        <g id="Home" transform="translate(-404.000000, -2190.000000)" fill="#7B7879">
            <g id="Group-17" transform="translate(404.000000, 2190.000000)">
                <g id="golden-gate-bridge">
                    <g id="Capa_1">
                        <g id="Group">
                            <path d="M88.1143125,28.1859556 C88.1143125,27.7423823 87.7524729,27.3827445 87.3061838,27.3827445 L82.7442971,27.3827445 L82.7442971,25.1727092 C84.2130711,25.5004193 85.7394242,25.6745153 87.3061838,25.6745153 C87.7524729,25.6745153 88.1143125,25.3148775 88.1143125,24.8713042 C88.1143125,24.4277309 87.7524729,24.0680931 87.3061838,24.0680931 C76.7196975,24.0680931 68.1072676,15.5078707 68.1072676,4.98600601 C68.1072676,4.54243268 67.7454279,4.1827949 67.2991389,4.1827949 L66.5378816,4.1827949 L66.5378816,1.47697748 C66.5378816,1.03340415 66.176042,0.673766374 65.7297529,0.673766374 C65.2834638,0.673766374 64.9216241,1.03340415 64.9216241,1.47697748 L64.9216241,4.1829957 L64.1605689,4.1829957 C63.7142798,4.1829957 63.3524402,4.54263348 63.3524402,4.98620681 C63.3524402,15.5080715 54.7398083,24.0682939 44.153524,24.0682939 C33.5672397,24.0682939 24.9546078,15.5080715 24.9546078,4.98620681 C24.9546078,4.54263348 24.5927682,4.1829957 24.1464791,4.1829957 L23.3854238,4.1829957 L23.3854238,1.47697748 C23.3854238,1.03340415 23.0235842,0.673766374 22.5772951,0.673766374 C22.131006,0.673766374 21.7691664,1.03340415 21.7691664,1.47697748 L21.7691664,4.1829957 L21.0081111,4.1829957 C20.5618221,4.1829957 20.1999824,4.54263348 20.1999824,4.98620681 C20.1999824,15.5080715 11.5873505,24.0682939 1.00106623,24.0682939 C0.554777137,24.0682939 0.1929375,24.4279317 0.1929375,24.871505 C0.1929375,25.3150783 0.554777137,25.6747161 1.00106623,25.6747161 C2.56863392,25.6747161 4.09559315,25.5004193 5.56497321,25.1725084 L5.56497321,27.3829453 L1.00106623,27.3829453 C0.554777137,27.3829453 0.1929375,27.7425831 0.1929375,28.1861565 C0.1929375,28.6297298 0.554777137,28.9893676 1.00106623,28.9893676 L20.1999824,28.9893676 L20.1999824,30.6961912 L1.00106623,30.6961912 C0.554777137,30.6961912 0.1929375,31.0558289 0.1929375,31.4994023 C0.1929375,31.9429756 0.554777137,32.3026134 1.00106623,32.3026134 L20.1999824,32.3026134 L20.1999824,42.7845183 L19.6361106,42.7845183 C19.1898215,42.7845183 18.8279819,43.1441561 18.8279819,43.5877294 L18.8279819,49.3445443 C18.0921807,49.3604077 17.3515307,49.1037817 16.7781634,48.5700479 C15.0447272,46.956196 12.3290107,46.956196 10.5953725,48.5698471 C9.48136705,49.6071943 7.73621307,49.6067927 6.62240965,48.5698471 C6.29673377,48.2666349 5.78539032,48.2833016 5.4801197,48.6071965 C5.1750511,48.9308905 5.19181977,49.4393232 5.51749565,49.7425354 C7.25093177,51.3561865 9.96664835,51.3559857 11.7002865,49.7423346 C12.2267789,49.2521727 12.8943423,48.9936644 13.5696301,48.9668945 C14.3229249,48.9370322 15.0858318,49.1955399 15.6732494,49.7425354 C17.4068875,51.3561865 20.1226041,51.3559857 21.8560402,49.7423346 C22.9700457,48.705389 24.7149976,48.7051882 25.828801,49.7425354 C27.5626412,51.3561865 30.2781558,51.3559857 32.0115919,49.7423346 C33.1255973,48.705389 34.8705493,48.7051882 35.9845547,49.7425354 C37.7181929,51.3561865 40.4339095,51.3559857 42.1671436,49.7423346 C43.280947,48.7055898 45.026101,48.7049874 46.1401064,49.7425354 C47.8739466,51.3559857 50.5892591,51.3561865 52.3228973,49.7423346 C53.4369027,48.7051882 55.1818547,48.705389 56.2958601,49.7425354 C58.0294983,51.3561865 60.7452149,51.3559857 62.478449,49.7423346 C63.5926564,48.7051882 65.3376084,48.705389 66.4514118,49.7425354 C68.18505,51.3561865 70.9007666,51.3559857 72.6342027,49.7423346 C73.7484102,48.7051882 75.4933621,48.705389 76.6071655,49.7425354 C77.4738836,50.5493609 78.5862728,50.9525729 79.698662,50.9525729 C80.8108491,50.9525729 81.9232383,50.5491601 82.7899564,49.7425354 C83.1156323,49.4391224 83.1324009,48.9308905 82.8273323,48.6071965 C82.5222637,48.2837032 82.0109203,48.2672374 81.6850424,48.5698471 C80.571441,49.6071943 78.826489,49.6069935 77.7120795,48.5700479 C75.9788454,46.956196 73.2627248,46.9559952 71.5292887,48.5698471 C70.9559213,49.1039825 70.2152714,49.3608093 69.4794702,49.3449459 L69.4794702,43.5877294 C69.4794702,43.1441561 69.1176305,42.7845183 68.6713414,42.7845183 L68.1072676,42.7845183 L68.1072676,32.3026134 L87.3061838,32.3026134 C87.7524729,32.3026134 88.1143125,31.9429756 88.1143125,31.4994023 C88.1143125,31.0558289 87.7524729,30.6961912 87.3061838,30.6961912 L68.1072676,30.6961912 L68.1072676,28.9893676 L87.3061838,28.9893676 C87.7524729,28.9891668 88.1143125,28.629529 88.1143125,28.1859556 Z M81.1278376,27.3827445 L77.3720594,27.3827445 L77.3720594,23.1624726 C78.5592005,23.8060455 79.8158406,24.3381728 81.1278376,24.7441961 L81.1278376,27.3827445 L81.1278376,27.3827445 Z M75.7560039,22.1887799 L75.7560039,27.3827445 L71.9998216,27.3827445 L71.9998216,18.9907949 C73.1186758,20.1978204 74.3793567,21.2727176 75.7560039,22.1887799 L75.7560039,22.1887799 Z M70.3835642,17.0187108 L70.3835642,27.3827445 L68.1072676,27.3827445 L68.1072676,12.9775549 C68.7145763,14.4138972 69.4806823,15.7683119 70.3835642,17.0187108 L70.3835642,17.0187108 Z M63.3524402,30.6959904 L24.9546078,30.6959904 L24.9546078,28.9891668 L63.3524402,28.9891668 L63.3524402,30.6959904 L63.3524402,30.6959904 Z M21.8162399,5.78921712 L23.3383503,5.78921712 L23.3383503,42.7837151 L21.8162399,42.7837151 L21.8162399,5.78921712 L21.8162399,5.78921712 Z M50.3328803,27.3827445 L50.3328803,24.7437944 C51.6448773,24.3377712 52.9015175,23.8054431 54.0886586,23.1618702 L54.0886586,27.3827445 L50.3328803,27.3827445 L50.3328803,27.3827445 Z M48.7166228,27.3827445 L44.9608446,27.3827445 L44.9608446,25.6574471 C46.2457693,25.6084512 47.5009952,25.4437929 48.7166228,25.1725084 L48.7166228,27.3827445 L48.7166228,27.3827445 Z M43.3445871,27.3827445 L39.5908292,27.3827445 L39.5908292,25.1725084 C40.8056487,25.4437929 42.0604706,25.6084512 43.3445871,25.6574471 L43.3445871,27.3827445 L43.3445871,27.3827445 Z M37.9745717,27.3827445 L34.2187935,27.3827445 L34.2187935,23.1618702 C35.4059346,23.8054431 36.6625748,24.3375704 37.9745717,24.7439952 L37.9745717,27.3827445 L37.9745717,27.3827445 Z M64.9686976,5.78921712 L66.4908081,5.78921712 L66.4908081,42.7837151 L64.9686976,42.7837151 L64.9686976,5.78921712 L64.9686976,5.78921712 Z M63.3524402,27.3827445 L61.0767497,27.3827445 L61.0767497,17.0177068 C61.9792274,15.7673079 62.7451314,14.4134956 63.3524402,12.9775549 L63.3524402,27.3827445 L63.3524402,27.3827445 Z M59.4604922,18.9899917 L59.4604922,27.3829453 L55.704714,27.3829453 L55.704714,22.1881775 C57.0813613,21.2719144 58.34184,20.1970172 59.4604922,18.9899917 L59.4604922,18.9899917 Z M32.602334,22.1881775 L32.602334,27.3827445 L28.8463537,27.3827445 L28.8463537,18.9897909 C29.9652079,20.1970172 31.2258887,21.2721152 32.602334,22.1881775 L32.602334,22.1881775 Z M27.2300963,17.017506 L27.2300963,27.3827445 L24.9546078,27.3827445 L24.9546078,12.9775549 C25.5619165,14.4134956 26.3278205,15.7673079 27.2300963,17.017506 L27.2300963,17.017506 Z M16.3090446,18.9889877 L16.3090446,27.3829453 L12.5532664,27.3829453 L12.5532664,22.1875751 C13.9297116,21.2711112 15.1903924,20.1960132 16.3090446,18.9889877 L16.3090446,18.9889877 Z M7.18123067,24.7437944 C8.49322765,24.3375704 9.74986782,23.8052423 10.9370089,23.1614686 L10.9370089,27.3827445 L7.18123067,27.3827445 L7.18123067,24.7437944 L7.18123067,24.7437944 Z M17.9253021,27.3827445 L17.9253021,17.0163012 C18.8273758,15.7663039 19.5928757,14.4128932 20.1999824,12.9775549 L20.1999824,27.3827445 L17.9253021,27.3827445 L17.9253021,27.3827445 Z M20.7509242,48.5696463 C20.6537467,48.6602084 20.5501042,48.7399271 20.4440373,48.8146257 L20.4440373,44.3909406 L24.710957,44.3909406 L24.710957,47.443946 C23.3288548,47.1776815 21.8447264,47.5517771 20.7509242,48.5696463 L20.7509242,48.5696463 Z M67.5563258,48.5698471 C66.4629276,47.5517771 64.9785972,47.1772799 63.596293,47.443946 L63.596293,44.3909406 L67.8630107,44.3909406 L67.8630107,48.8148265 C67.7569438,48.7401279 67.6535033,48.6604092 67.5563258,48.5698471 L67.5563258,48.5698471 Z M62.7881643,42.7845183 C62.3418752,42.7845183 61.9800356,43.1441561 61.9800356,43.5877294 L61.9800356,48.0993662 C61.7683058,48.2377193 61.5640513,48.3923375 61.373535,48.5698471 C60.2599336,49.6071943 58.5147796,49.6069935 57.4005721,48.5700479 C55.6675401,46.956196 52.9514194,46.9559952 51.2177812,48.5698471 C50.1037758,49.6071943 48.3588238,49.6065919 47.2448184,48.5700479 C45.5115843,46.9559952 42.7956657,46.9563968 41.0622296,48.5698471 C39.9482241,49.6071943 38.2030701,49.6065919 37.0892667,48.5700479 C35.3560326,46.956196 32.640114,46.956196 30.9064759,48.5698471 C29.7926724,49.6067927 28.0475185,49.6067927 26.933513,48.5700479 C26.7429967,48.3925383 26.5387421,48.238121 26.3272144,48.0997678 L26.3272144,43.5877294 C26.3272144,43.1441561 25.9653748,42.7845183 25.5190857,42.7845183 L24.9546078,42.7845183 L24.9546078,32.3026134 L63.3524402,32.3026134 L63.3524402,42.7845183 L62.7881643,42.7845183 L62.7881643,42.7845183 Z" id="Shape"></path>
                        </g>
                    </g>
                </g>
            </g>
        </g>
    </g>
</svg>

<svg width="89" height="51" viewBox="0 0 89 51" xmlns="http://www.w3.org/2000/svg"><title>golden-gate-bridge</title><path d="M88.114 28.186a.806.806 0 0 0-.808-.803h-4.562v-2.21c1.47.327 2.995.502 4.562.502.446 0 .808-.36.808-.804a.806.806 0 0 0-.808-.803c-10.586 0-19.199-8.56-19.199-19.082a.806.806 0 0 0-.808-.803h-.761V1.477a.806.806 0 0 0-.808-.803.806.806 0 0 0-.808.803v2.706h-.761a.806.806 0 0 0-.809.803c0 10.522-8.612 19.082-19.198 19.082-10.587 0-19.2-8.56-19.2-19.082a.806.806 0 0 0-.808-.803h-.76V1.477a.806.806 0 0 0-.809-.803.806.806 0 0 0-.808.803v2.706h-.76a.806.806 0 0 0-.809.803c0 10.522-8.613 19.082-19.199 19.082a.806.806 0 0 0-.808.804c0 .443.362.803.808.803 1.568 0 3.095-.175 4.564-.502v2.21H1.001a.806.806 0 0 0-.808.803c0 .444.362.803.808.803H20.2v1.707H1.001a.806.806 0 0 0-.808.803c0 .444.362.804.808.804H20.2v10.482h-.564a.806.806 0 0 0-.808.803v5.757a2.907 2.907 0 0 1-2.05-.775 4.553 4.553 0 0 0-6.183 0 2.925 2.925 0 0 1-3.973 0 .812.812 0 0 0-1.142.037.8.8 0 0 0 .037 1.136 4.553 4.553 0 0 0 6.183 0 2.905 2.905 0 0 1 1.87-.776 2.91 2.91 0 0 1 2.103.776 4.553 4.553 0 0 0 6.183 0 2.925 2.925 0 0 1 3.973 0 4.553 4.553 0 0 0 6.183 0 2.925 2.925 0 0 1 3.973 0 4.553 4.553 0 0 0 6.182 0 2.925 2.925 0 0 1 3.973 0 4.553 4.553 0 0 0 6.183 0 2.925 2.925 0 0 1 3.973 0 4.553 4.553 0 0 0 6.182 0 2.925 2.925 0 0 1 3.973 0 4.553 4.553 0 0 0 6.183 0 2.925 2.925 0 0 1 3.973 0 4.526 4.526 0 0 0 3.092 1.21 4.527 4.527 0 0 0 3.091-1.21.8.8 0 0 0 .037-1.136.812.812 0 0 0-1.142-.037 2.925 2.925 0 0 1-3.973 0 4.553 4.553 0 0 0-6.183 0 2.906 2.906 0 0 1-2.05.775v-5.757a.806.806 0 0 0-.808-.803h-.564V32.303h19.2c.445 0 .807-.36.807-.804a.806.806 0 0 0-.808-.803H68.107V28.99h19.2c.445 0 .807-.36.807-.803zm-6.986-.803h-3.756v-4.22a20.753 20.753 0 0 0 3.756 1.581v2.639zm-5.372-5.194v5.194H72V18.99a20.944 20.944 0 0 0 3.756 3.198zm-5.372-5.17v10.364h-2.277V12.978a20.625 20.625 0 0 0 2.277 4.04zm-7.032 13.677H24.955v-1.707h38.397v1.707zM21.816 5.789h1.522v36.995h-1.522V5.789zm28.517 21.594v-2.64a20.754 20.754 0 0 0 3.756-1.581v4.22h-3.756zm-1.616 0H44.96v-1.726a20.886 20.886 0 0 0 3.756-.484v2.21zm-5.372 0H39.59v-2.21c1.215.27 2.47.435 3.754.484v1.726zm-5.37 0h-3.756v-4.221a20.784 20.784 0 0 0 3.756 1.582v2.639zM64.969 5.789h1.522v36.995h-1.522V5.789zm-1.617 21.594h-2.275V17.018a20.647 20.647 0 0 0 2.275-4.04v14.405zM59.46 18.99v8.393h-3.755v-5.195a20.944 20.944 0 0 0 3.755-3.198zm-26.858 3.198v5.195h-3.756V18.99a20.944 20.944 0 0 0 3.756 3.198zm-5.372-5.17v10.365h-2.275V12.978a20.649 20.649 0 0 0 2.275 4.04zM16.31 18.989v8.394h-3.756v-5.195a20.961 20.961 0 0 0 3.756-3.199zm-9.128 5.755a20.756 20.756 0 0 0 3.756-1.583v4.222H7.181v-2.64zm10.744 2.639V17.016a20.648 20.648 0 0 0 2.275-4.038v14.405h-2.275zm2.826 21.187c-.097.09-.2.17-.307.245V44.39h4.267v3.053a4.545 4.545 0 0 0-3.96 1.126zm46.805 0a4.543 4.543 0 0 0-3.96-1.126V44.39h4.267v4.424a2.866 2.866 0 0 1-.307-.245zm-4.768-5.785a.806.806 0 0 0-.808.803v4.511a4.478 4.478 0 0 0-.606.47 2.925 2.925 0 0 1-3.973.001 4.553 4.553 0 0 0-6.183 0 2.926 2.926 0 0 1-3.973 0 4.553 4.553 0 0 0-6.183 0 2.926 2.926 0 0 1-3.973 0 4.553 4.553 0 0 0-6.183 0 2.926 2.926 0 0 1-3.972 0 4.487 4.487 0 0 0-.607-.47v-4.512a.806.806 0 0 0-.808-.803h-.564V32.303h38.397v10.482h-.564z" fill="#7B7879" fill-rule="evenodd"/></svg>
